packages/tokens/icons/upload/size16Px.svg

<svg viewBox="0 0 16 16" fill="none" xmlns="http://www.w3.org/2000/svg" width="1em" height="1em"><path d="M7.99999 11.5L7.99999 1.5M7.99999 1.5L11.5 4.5M7.99999 1.5L4.5 4.5" stroke="currentColor" stroke-linecap="round" stroke-linejoin="round"/><path d="M2.5 8L2.5 12.5C2.5 13.6046 3.39543 14.5 4.5 14.5L11.5 14.5C12.6046 14.5 13.5 13.6046 13.5 12.5L13.5 8" stroke="currentColor" stroke-linecap="round"/></svg>

<svg xmlns="http://www.w3.org/2000/svg" fill="none" viewBox="0 0 16 16" width="1em" height="1em"><path stroke="currentColor" stroke-linecap="round" stroke-linejoin="round" d="M8 11.5v-10m0 0 3.5 3M8 1.5l-3.5 3"/><path stroke="currentColor" stroke-linecap="round" d="M2.5 8v4.5a2 2 0 0 0 2 2h7a2 2 0 0 0 2-2V8"/></svg>
